X: 7
T: Newmarket, The
Z: NfldWhistler
S: https://thesession.org/tunes/334#setting50007
R: polka
M: 2/4
L: 1/8
K: Gmaj
|:de/d/ BB|AF G>B|AF GA|BA A2|
de/d/ BB|AF G>B| AF GA|BG G2:|
|:de/f/ gg|fe ed|Bd ef|ed dB|
de/f/ gg|fe ed|Bd ef|1 g2 ge:|2 g2 g2||

%-------------------- TUNE SEPARATOR --------------------%

